_src/static/img/icon/vk.svg

<svg width="20" height="11" viewBox="0 0 20 11" fill="none" xmlns="http://www.w3.org/2000/svg">
<path fill-rule="evenodd" clip-rule="evenodd" d="M9.78521 10.9539H10.9807C10.9807 10.9539 11.3418 10.9157 11.5262 10.7241C11.6959 10.5482 11.6904 10.2179 11.6904 10.2179C11.6904 10.2179 11.6671 8.67136 12.4116 8.44362C13.1455 8.21929 14.0879 9.9383 15.0868 10.5993C15.8421 11.0995 16.4161 10.9898 16.4161 10.9898L19.087 10.9539C19.087 10.9539 20.4842 10.871 19.8217 9.81187C19.7674 9.72522 19.4359 9.02841 17.8359 7.59655C16.1612 6.09795 16.3854 6.34035 18.4028 3.74809C19.6314 2.16939 20.1226 1.20557 19.9692 0.792767C19.8228 0.399596 18.9192 0.503517 18.9192 0.503517L15.9119 0.521579C15.9119 0.521579 15.689 0.492261 15.5237 0.587543C15.3621 0.680993 15.2581 0.898782 15.2581 0.898782C15.2581 0.898782 14.7822 2.12044 14.1474 3.15938C12.8082 5.35166 12.2728 5.46736 12.054 5.33124C11.5449 5.01398 11.672 4.05671 11.672 3.37665C11.672 1.25216 12.0062 0.366353 11.0211 0.137047C10.6942 0.0608737 10.4537 0.0106149 9.61769 0.00250018C8.54467 -0.00823217 7.63645 0.00564101 7.12221 0.248559C6.7801 0.410067 6.51619 0.769994 6.67692 0.790673C6.87567 0.816326 7.32584 0.907682 7.5645 1.22101C7.87267 1.62518 7.86181 2.53298 7.86181 2.53298C7.86181 2.53298 8.03884 5.03388 7.44829 5.34459C7.04292 5.55767 6.48686 5.12262 5.29302 3.13373C4.6813 2.11494 4.21945 0.988829 4.21945 0.988829C4.21945 0.988829 4.1304 0.77837 3.97156 0.665811C3.77879 0.529432 3.50944 0.48598 3.50944 0.48598L0.65176 0.50404C0.65176 0.50404 0.222768 0.515559 0.0652904 0.695391C-0.0748108 0.855329 0.0541582 1.1862 0.0541582 1.1862C0.0541582 1.1862 2.29143 6.2325 4.82466 8.77554C7.14746 11.1071 9.78521 10.9539 9.78521 10.9539Z" fill="url(#paint0_linear)"/>
<defs>
<linearGradient id="paint0_linear" x1="-10" y1="5.5" x2="-0.710173" y2="22.3906" gradientUnits="userSpaceOnUse">
<stop stop-color="#93F6A5"/>
<stop offset="1" stop-color="#58D2E5"/>
</linearGradient>
</defs>
</svg>

<svg width="20" height="11" fill="none" xmlns="http://www.w3.org/2000/svg"><path fill-rule="evenodd" clip-rule="evenodd" d="M9.785 10.954h1.196s.36-.038.545-.23c.17-.176.164-.506.164-.506s-.023-1.547.722-1.774c.733-.225 1.676 1.494 2.675 2.155.755.5 1.33.39 1.33.39l2.67-.035s1.397-.083.735-1.142c-.055-.087-.386-.784-1.986-2.215-1.675-1.5-1.45-1.257.567-3.849 1.228-1.579 1.72-2.542 1.566-2.955-.146-.393-1.05-.29-1.05-.29l-3.007.019s-.223-.03-.388.066c-.162.093-.266.31-.266.31s-.476 1.222-1.11 2.261c-1.34 2.193-1.875 2.308-2.094 2.172-.51-.317-.382-1.274-.382-1.954 0-2.125.334-3.01-.65-3.24-.328-.076-.568-.126-1.404-.134-1.073-.011-1.982.003-2.496.246C6.78.41 6.516.77 6.677.79c.199.025.649.117.888.43.308.404.297 1.312.297 1.312s.177 2.5-.414 2.812c-.405.213-.961-.222-2.155-2.211C4.681 2.114 4.219.989 4.219.989S4.13.779 3.972.666a1.267 1.267 0 00-.463-.18L.652.504S.222.516.065.695c-.14.16-.01.491-.01.491s2.236 5.046 4.77 7.59c2.322 2.331 4.96 2.178 4.96 2.178z" fill="url(#paint0_linear)"/><defs><linearGradient id="paint0_linear" x1="-10" y1="5.5" x2="-.71" y2="22.391" gradientUnits="userSpaceOnUse"><stop stop-color="#93F6A5"/><stop offset="1" stop-color="#58D2E5"/></linearGradient></defs></svg>
